X:500
T:Jimmy Ward's Jig
R:jig
Z:Transcribed by Dave Marshall
M:6/8
K:G
|: ~G3 GAB | AGE GED | ~G3 AGE | GED DEF |
~G3 GAB | AGE GAB | cBA BGE |1 DED DEF:|2 DED D3
|: c2A BAG | ABA AGE | cBA BGE | DED D3 |
cBA BAG | ABA ABc | dcA GEA |1 DED D3 :|2 DED DEF|
